packages/core/src/svgs/lime.svg

<svg width="24" height="24" viewBox="0 0 24 24" fill="none" xmlns="http://www.w3.org/2000/svg">
<g clip-path="url(#clip0_31_13125)">
<path d="M0 0H24V24H0V0Z" fill="#F0F3FA"/>
<path fill-rule="evenodd" clip-rule="evenodd" d="M19.2857 12.0001C19.2851 10.0672 18.5167 8.21374 17.1496 6.8474C16.4727 6.17086 15.6691 5.63428 14.7848 5.26829C13.9005 4.9023 12.9527 4.71407 11.9957 4.71436C10.0628 4.71492 8.20935 5.48329 6.84301 6.85043C5.47667 8.21757 4.70939 10.0715 4.70996 12.0044C4.71053 13.9372 5.4789 15.7907 6.84604 17.157C8.21318 18.5234 10.0671 19.2906 12 19.2901C13.9328 19.2895 15.7863 18.5211 17.1526 17.154C18.519 15.7868 19.2862 13.9329 19.2857 12.0001ZM18.4285 12.0001C18.4285 10.2951 17.7512 8.65997 16.5456 7.45438C15.3401 6.24879 13.7049 5.5715 12 5.5715C10.295 5.5715 8.65987 6.24879 7.45428 7.45438C6.24868 8.65997 5.57139 10.2951 5.57139 12.0001C5.57139 13.705 6.24868 15.3402 7.45428 16.5458C8.65987 17.7513 10.295 18.4286 12 18.4286C13.7049 18.4286 15.3401 17.7513 16.5456 16.5458C17.7512 15.3402 18.4285 13.705 18.4285 12.0001ZM12 11.1429C12.2273 11.1429 12.4453 11.2332 12.6061 11.394C12.7668 11.5547 12.8571 11.7727 12.8571 12.0001C12.8571 12.2274 12.7668 12.4454 12.6061 12.6062C12.4453 12.7669 12.2273 12.8572 12 12.8572C11.7726 12.8572 11.5546 12.7669 11.3939 12.6062C11.2331 12.4454 11.1428 12.2274 11.1428 12.0001C11.1428 11.7727 11.2331 11.5547 11.3939 11.394C11.5546 11.2332 11.7726 11.1429 12 11.1429ZM15.57 16.9072C16.4927 16.2313 17.2082 15.311 17.6357 14.2501C17.6752 14.1555 17.693 14.0533 17.6878 13.951C17.6826 13.8486 17.6546 13.7487 17.6057 13.6586C17.5114 13.4658 17.3485 13.3458 17.1428 13.2944L13.6285 12.4544C13.5122 12.4272 13.3904 12.4342 13.2779 12.4745C13.1654 12.5148 13.0669 12.5867 12.9942 12.6815C12.9181 12.7738 12.8712 12.8868 12.8598 13.0059C12.8483 13.1251 12.8728 13.2449 12.93 13.3501L14.5285 16.6586C14.6228 16.8429 14.7857 16.9715 14.9914 17.0186C15.1971 17.0701 15.3985 17.0358 15.57 16.9072ZM8.45568 16.9115C7.55696 16.2605 6.85187 15.3776 6.41568 14.3572C6.32996 14.1558 6.33853 13.9501 6.4371 13.7572C6.53568 13.5644 6.69425 13.4358 6.90853 13.3886L10.3714 12.4458C10.4142 12.4372 10.4571 12.4286 10.5 12.4286C10.6971 12.4201 10.8857 12.5101 11.0057 12.6729C11.0803 12.766 11.1261 12.8789 11.1376 12.9976C11.149 13.1164 11.1255 13.2359 11.07 13.3415L9.50139 16.6629C9.39853 16.8558 9.24425 16.9758 9.03853 17.0272C8.82425 17.0786 8.62282 17.0401 8.45139 16.9115H8.45568ZM16.0285 7.47007C15.1571 6.70866 14.0922 6.2029 12.9514 6.00864C12.7371 5.97864 12.5442 6.03007 12.3814 6.16293C12.2185 6.30007 12.1328 6.48436 12.1328 6.69864L12.1114 10.5129C12.1028 10.7615 12.24 10.9758 12.4671 11.0829C12.5752 11.1334 12.6955 11.1522 12.8138 11.137C12.9322 11.1218 13.0438 11.0734 13.1357 10.9972L16.0114 8.5415C16.1785 8.40864 16.2685 8.22436 16.2685 8.01007C16.2685 7.79578 16.1914 7.6115 16.0285 7.47007ZM11.8585 10.4915L11.7385 6.69864C11.7342 6.48436 11.64 6.30864 11.4771 6.1715C11.3993 6.10581 11.3074 6.0589 11.2086 6.03437C11.1097 6.00985 11.0066 6.00838 10.9071 6.03007C9.77799 6.23313 8.73001 6.7534 7.88568 7.53007C7.7271 7.67578 7.64996 7.86864 7.65853 8.07864C7.66282 8.29293 7.7571 8.47293 7.92853 8.60578L10.8428 11.0058C10.9628 11.1044 11.1085 11.1472 11.2542 11.1429C11.337 11.1407 11.4185 11.122 11.4939 11.0879C11.5693 11.0538 11.6371 11.005 11.6934 10.9443C11.7497 10.8837 11.7933 10.8123 11.8217 10.7346C11.85 10.6568 11.8626 10.5742 11.8585 10.4915ZM16.2428 8.8415L13.5214 11.1344C13.3585 11.2629 13.2771 11.4429 13.2814 11.6401C13.2846 11.7839 13.337 11.9223 13.4298 12.0322C13.5226 12.1421 13.6502 12.217 13.7914 12.2444L17.22 12.9301C17.4257 12.9686 17.6228 12.9258 17.7857 12.7886C17.9571 12.6558 18.0514 12.4758 18.0557 12.2615C18.0642 12.1758 18.0642 12.0858 18.0642 12.0001C18.0642 10.9286 17.7857 9.92578 17.3014 9.04721C17.2505 8.95821 17.1809 8.8814 17.0972 8.82217C17.0135 8.76295 16.9179 8.72273 16.8171 8.70436C16.6028 8.6615 16.41 8.70436 16.2428 8.8415ZM10.4571 11.1301L7.69282 8.91436C7.52139 8.78578 7.32425 8.74293 7.11853 8.79436C6.90853 8.8415 6.74568 8.96578 6.6471 9.15007C6.10621 10.1585 5.86389 11.3003 5.94853 12.4415C5.96139 12.6558 6.06425 12.8315 6.23139 12.9601C6.40282 13.0886 6.60425 13.1315 6.80996 13.0801L10.2214 12.2486C10.4657 12.1886 10.6414 12.0129 10.6928 11.7644C10.7213 11.6472 10.7141 11.5242 10.6721 11.4111C10.6301 11.2981 10.5552 11.2002 10.4571 11.1301ZM13.7271 17.8158C13.4185 17.9015 13.11 17.7944 12.7928 17.6872C12.5485 17.6015 12.3 17.5158 12.0385 17.5158C11.7942 17.5158 11.5285 17.6015 11.2671 17.6829C10.9242 17.7901 10.59 17.8972 10.2985 17.8201C10.0928 17.7644 10.0071 17.6529 9.92139 17.4686C9.83139 17.2801 9.83139 17.0829 9.92139 16.8944L11.4814 13.6372C11.5885 13.4186 11.8028 13.2858 12.0514 13.2858C12.3 13.2858 12.5142 13.4144 12.6214 13.6372L14.1771 16.8686C14.2671 17.0529 14.2671 17.2458 14.1814 17.4386C14.0828 17.6272 13.9328 17.7515 13.7271 17.8115V17.8158ZM12 13.6201V17.0401C12 17.0401 12.0171 17.1858 11.6785 17.2886L10.7442 17.5629C10.6714 17.5844 10.1057 17.6615 10.3414 17.0229C10.5728 16.3886 11.6785 13.9072 11.6785 13.9072C11.6785 13.9072 11.7942 13.6415 12 13.6201Z" fill="url(#paint0_linear_31_13125)"/>
</g>
<defs>
<linearGradient id="paint0_linear_31_13125" x1="5.99139" y1="7.18721" x2="17.4" y2="17.2629" gradientUnits="userSpaceOnUse">
<stop stop-color="#0690F9"/>
<stop offset="1" stop-color="#0B54E3"/>
</linearGradient>
<clipPath id="clip0_31_13125">
<rect width="24" height="24" fill="white"/>
</clipPath>
</defs>
</svg>

<svg xmlns="http://www.w3.org/2000/svg" width="24" height="24" fill="none" viewBox="0 0 24 24"><g clip-path="url(#a)"><path fill="#F0F3FA" d="M0 0h24v24H0z"/><path fill="url(#b)" fill-rule="evenodd" d="M19.286 12a7.288 7.288 0 1 0-14.577.005A7.288 7.288 0 0 0 19.286 12m-.858 0a6.429 6.429 0 1 0-12.857 0 6.429 6.429 0 0 0 12.858 0M12 11.143a.857.857 0 1 1 0 1.714.857.857 0 0 1 0-1.714m3.57 5.764a6.14 6.14 0 0 0 2.066-2.657.69.69 0 0 0-.03-.591.68.68 0 0 0-.463-.365l-3.514-.84a.62.62 0 0 0-.635.227.6.6 0 0 0-.064.67l1.598 3.308a.68.68 0 0 0 .463.36.67.67 0 0 0 .579-.112m-7.114.005a6.13 6.13 0 0 1-2.04-2.555.69.69 0 0 1 .021-.6.68.68 0 0 1 .472-.368l3.462-.943a.595.595 0 0 1 .634.227.61.61 0 0 1 .065.668l-1.569 3.322a.7.7 0 0 1-.462.364.68.68 0 0 1-.588-.116zm7.573-9.442A6.3 6.3 0 0 0 12.95 6.01a.71.71 0 0 0-.57.154.68.68 0 0 0-.248.536l-.022 3.814a.6.6 0 0 0 .356.57.63.63 0 0 0 .669-.086l2.875-2.456a.66.66 0 0 0 .258-.53.69.69 0 0 0-.24-.54m-4.17 3.022-.12-3.793a.69.69 0 0 0-.262-.527.66.66 0 0 0-.57-.142 6.04 6.04 0 0 0-3.021 1.5.69.69 0 0 0-.227.549.66.66 0 0 0 .27.527l2.914 2.4c.12.098.265.141.411.137a.62.62 0 0 0 .604-.652m4.384-1.65-2.722 2.292a.63.63 0 0 0 .27 1.11l3.429.686a.66.66 0 0 0 .566-.141.66.66 0 0 0 .27-.527q.01-.131.008-.262a6.1 6.1 0 0 0-.763-2.953.7.7 0 0 0-.484-.343.66.66 0 0 0-.574.137m-5.786 2.288L7.693 8.914a.66.66 0 0 0-.574-.12.7.7 0 0 0-.472.356 6 6 0 0 0-.698 3.291c.012.215.115.39.282.52a.67.67 0 0 0 .579.12l3.411-.832a.62.62 0 0 0 .472-.485.6.6 0 0 0-.236-.634m3.27 6.686c-.309.085-.617-.022-.934-.129-.244-.085-.493-.171-.754-.171-.245 0-.51.086-.772.167-.343.107-.677.214-.968.137-.206-.056-.292-.167-.378-.351a.64.64 0 0 1 0-.575l1.56-3.257a.62.62 0 0 1 .57-.351c.249 0 .463.128.57.351l1.556 3.232a.65.65 0 0 1 .004.57.72.72 0 0 1-.454.372zM12 13.62v3.42s.017.146-.322.249l-.934.274c-.073.021-.638.099-.403-.54.232-.634 1.338-3.116 1.338-3.116s.115-.265.321-.287" clip-rule="evenodd"/></g><defs><linearGradient id="b" x1="5.991" x2="17.4" y1="7.187" y2="17.263" gradientUnits="userSpaceOnUse"><stop stop-color="#0690F9"/><stop offset="1" stop-color="#0B54E3"/></linearGradient><clipPath id="a"><path fill="#fff" d="M0 0h24v24H0z"/></clipPath></defs></svg>
